!! G. F. Handel, "Fuga I" for keyboard (1735) from Hallische Haendel-Ausgabe
!! Baerenreiter Kassel (Basel) 1970; Serie IV, Band 6, pp.1-3
!! HHA iv/6,1   New Grove No. 264; for four voices.
!! NOTE:  Double-stops occur in bars 45, 51, 68 and 69.  A number of
!!        voicing abberations occur in this work; this encoding includes
!!        a number of interpretive 'fixes'.
!! NOTE:  This work has been validated through the double-entry method
!!        of error detection.
**kern	**kern	**kern	**kern
*M4/4	*M4/4	*M4/4	*M4/4
=1	=1	=1	=1
1r	1r	4r	1r
.	.	4dd	.
.	.	4g	.
.	.	4a	.
=2	=2	=2	=2
1r	1r	4b-	1r
.	.	8a	.
.	.	8g	.
.	.	2ee-T	.
=3	=3	=3	=3
1r	8r	4.dd	1r
.	8d	.	.
.	8d	.	.
.	8d	8dd	.
.	8e-	4g	.
.	8e-	.	.
.	8d	[4cc	.
.	8c	.	.
=4	=4	=4	=4
1r	8d	4cc]	1r
.	8G	.	.
.	[4g	4b-	.
.	4g]	8a	.
.	.	16b-	.
.	.	16cc	.
.	4f#	8dd	.
.	.	8cc	.
=5	=5	=5	=5
4r	2g	8b-	1r
.	.	8a	.
4G	.	8b-	.
.	.	16cc	.
.	.	16b-	.
4D	4fn	8a	.
.	.	[8dd	.
4En	4g	8dd]	.
.	.	8cc#	.
=6	=6	=6	=6
4F	4a	8dd	1r
.	.	16een	.
.	.	16dd	.
8En	[4a	8ee	.
8D	.	8ff	.
2B-T	4a]	2dd	.
.	4g	.	.
=7	=7	=7	=7
4.A	8a	2cc#	8r
.	8g	.	8aa
.	8f	.	8aa
8A	8en	.	8aa
4D	4d	8r	8bb-
.	.	8dd	8bb-
[4G	4e	8ccn	8aa
.	.	8b-	8gg
=8	=8	=8	=8
4G]	8c#	4.a	8aa
.	8en	.	16dd
.	.	.	16cc#
4F	4A	.	[4dd
.	.	16b-	.
.	.	16a	.
2En	4.e	2g	8dd]
.	.	.	8cc#
.	.	.	8dd
.	8G	.	8een
=9	=9	=9	=9
4.D	8A	4.f	4.ff
.	8d	.	.
.	8A	.	.
8G	8Bn	8g	16ee-
.	.	.	16dd
8C	4cn	4e-	4.ee-
8D	.	.	.
8E-	4r	[4c	.
8F	.	.	8ee-
=10	=10	=10	=10
4.G	1r	8c]	4dd
.	.	8Bn	.
.	.	8c	[4dd
8G	.	8d	.
8c	.	4.e-	8dd]
8B-	.	.	8g
8A	.	.	[4cc
8G	.	8e-	.
=11	=11	=11	=11
8F#	2r	8d	4cc]
8D	.	8f#	.
8E-	.	[4g	4b-
8BB-	.	.	.
8C	4r	4g]	2a
8AA	.	.	.
8D	4d	4f#	.
8C	.	.	.
=12	=12	=12	=12
4BB-	4G	4g	4g
4AA	4A	4r	4f#
4GG	4B-	2r	8g
.	.	.	8d
4E-	8A	.	4g
.	8G	.	.
=13	=13	=13	=13
4C	2r	2e-	8r
.	.	.	8g
4F	.	.	8.aT
.	.	.	32g
.	.	.	32a
2BB-	8r	4.d	8b-
.	8D	.	8a
.	8D	.	8g
.	8D	8d	8f#
=14	=14	=14	=14
2EE-	8E-	4G	4.g
.	8E-	.	.
.	8D	[4c	.
.	8C	.	8a
4DD	8D	4c]	8f#
.	8D	.	8d
[4G	4r	4B-	8d
.	.	.	16e-
.	.	.	16d
=15	=15	=15	=15
4G]	4A	4.c	8r
.	.	.	8a
4F#	4r	.	8a
.	.	8d	8a
4G	2r	8B-	8b-
.	.	8d	8b-
4c	.	4en	8a
.	.	.	8g
=16	=16	=16	=16
4.Fn	1r	4.f	8a
.	.	.	8d
.	.	.	8dd
8F	.	8a	8cc
8G	.	8d	8b-
8A	.	8c#	8a
8B-	.	8d	[4g
8G	.	8en	.
=17	=17	=17	=17
8A	2r	8c#	8g]
8F	.	8A	8a
8B-	.	4d	8f
8G	.	.	8en
8A	4r	4d	4f
8AA	.	.	.
8A	[4cn	4en	4r
8G	.	.	.
=18	=18	=18	=18
4F#	4c]	4d	8r
.	.	.	8dd
4G	4Bn	4r	8dd
.	.	.	8dd
4C	4c	2r	8ee-
.	.	.	8ee-
[4c	4e-	.	8dd
.	.	.	8cc
=19	=19	=19	=19
4c]	4f	1r	8dd
.	.	.	8g
4Bn	4d	.	8gg
.	.	.	8ff
8c	4g	.	4.ee-
8B-	.	.	.
8A	[4cc	.	.
8F	.	.	16ff
.	.	.	16ee-
=20	=20	=20	=20
8B-	8cc]	1r	4dd
8c	8cc	.	.
8d	8b-	.	[4ff
8D	8a	.	.
8E-	8g	.	4ff]
8F	8a	.	.
8G	8b-	.	[4ee-
8A	8cc	.	.
=21	=21	=21	=21
8B-	4f	1r	8ee-]
8BB-	.	.	8ff
8D	8b-	.	[4dd
8BB-	8a	.	.
8E-	8g	.	8dd]
8F	8f	.	8ee-
8G	8e-	.	8cc
8E-	8d	.	8b-
=22	=22	=22	=22
4F	4c	4a	8r
.	.	.	8cc
4A	8c	4f	8cc
.	8F	.	8cc
2B-	4d	4f	8dd
.	.	.	8dd
.	4en	4g	8cc
.	.	.	8b-
=23	=23	=23	=23
4.A	4c	4a	8cc
.	.	.	8f
.	4r	4a	[4ff
16G	.	.	.
16F	.	.	.
8r	2c	2g	8ff]
8C	.	.	8gg
8C	.	.	4eenT
8C	.	.	.
=24	=24	=24	=24
8D	8f	1r	4ff
8D	8f	.	.
8C	8en	.	[4b-
8BB-	8d	.	.
8C	4e	.	8b-]
8FF	.	.	8cc
[4F	4c	.	8a
.	.	.	8g
=25	=25	=25	=25
4F]	8B-	2r	2g
.	8G	.	.
[4E-	8c	.	.
.	8B-	.	.
4E-]	8A	2f	4r
.	8F	.	.
4D	8G	.	4ff
.	8A	.	.
=26	=26	=26	=26
4G	4B-	8r	4b-
.	.	8e-	.
4r	4A	8d	4cc
.	.	8c	.
2r	8B-	2f	4dd
.	8B-	.	.
.	8c	.	8cc
.	8d	.	8b-
=27	=27	=27	=27
2r	8e-	8r	2gg
.	8E-	8g	.
.	[4e-	8cc	.
.	.	8b-	.
8r	8e-]	2a	4.ff
8F	8e-	.	.
8F	8d	.	.
8F	8c	.	8ff
=28	=28	=28	=28
8G	4B-	8r	8b-
8G	.	8b-	8b-
8F	4c	8a	[4ee-
8E-	.	8g	.
8F	4f	4a	4ee-]
8BB-	.	.	.
[4B-	4f	4b-	8dd
.	.	.	8ee-
=29	=29	=29	=29
4B-]	8e-	4g	2cc
.	8c	.	.
[4A-	8f	4r	.
.	8e-	.	.
4A-]	8d	4f	4b-
.	8B-	.	.
4G	4g	8b-	[4ee-
.	.	16cc	.
.	.	16b-	.
=30	=30	=30	=30
8F	4r	8a-	8ee-]
8FF	.	8g	8ff
4r	[4F	8f	8dd
.	.	8e-	8cc
4r	8F]	4d	4bn
.	8F	.	.
4GG	8E-	4Bn	8g
.	8D	.	8f
=31	=31	=31	=31
4CC	8G	4r	4e-
.	8c	.	.
4DD	8B-	4f	2.r
.	8A-	.	.
4EE-	8G	4.g	.
.	16An	.	.
.	16Bn	.	.
8DD	[4c	.	.
8CC	.	16f	.
.	.	16e-	.
=32	=32	=32	=32
2AA-T	8c]	[2f	2r
.	8e-	.	.
.	8d	.	.
.	8c	.	.
4.GG	4.Bn	4f]	8r
.	.	.	8g
.	.	8en	8g
8G	8Bn	8d	8g
=33	=33	=33	=33
4C	4c	4en	8a-
.	.	.	8a-
[4F	4A-	4c	8g
.	.	.	8f
8F]	4G	4r	8g
8C	.	.	8c
8C	8En	4c	[4cc
8C	8en	.	.
=34	=34	=34	=34
8D-	4f	4F	8cc]
8D-	.	.	16b-
.	.	.	16an
8C	4G	4r	8b-
8BB-	.	.	8g
8C	4A-	2r	8en
8FF	.	.	8c
4AA-	8G	.	4cc
.	8F	.	.
=35	=35	=35	=35
4BB-	8d-	1r	4f
.	16c	.	.
.	16d-	.	.
4E-	8.d-	.	4g
.	16c	.	.
8AA-	4.c	.	4a-
8FF	.	.	.
8GG	.	.	8g
8AA-	8c	.	8f
=36	=36	=36	=36
8BB-	4F	2r	2dd-T
8C	.	.	.
8D-	[4B-	.	.
8BB-	.	.	.
8En	4B-]	8r	4.cc
8C	.	8c	.
8F	[4A-	8c	.
8AA-	.	8c	8cc
=37	=37	=37	=37
4BB-	4A-]	8d-	4f
.	.	8d-	.
4D-	8G	8c	[4b-
.	8F	8B-	.
2C	4En	2c	8b-]
.	.	.	8g
.	[4F	.	8a-
.	.	.	8f
=38	=38	=38	=38
4.C	8F]	[2c	4.g
.	16E-	.	.
.	16Dn	.	.
.	[4E-	.	.
8C	.	.	16an
.	.	.	16b-
2FF	4E-]	4c]	8a
.	.	.	8f
.	8D-	4r	[4b-
.	8BB-	.	.
=39	=39	=39	=39
1r	4F	2f	8b-]
.	.	.	8a
.	8G	.	8b-
.	8A	.	8cc
.	8B-	8r	4.dd-
.	8A-	8f	.
.	8G	[4b-	.
.	8E-	.	16ee-
.	.	.	16dd
=40	=40	=40	=40
4r	8A-	8b-]	4.cc
.	8B-	16a-	.
.	.	16g	.
4A-	8c	4a-	.
.	8d	.	8cc
4E-	4e-	4g	8b-
.	.	.	[8ee-
4r	4F	4a-	8ee-]
.	.	.	8ddn
=41	=41	=41	=41
1r	4G	4b-	8ee-
.	.	.	8e-
.	8F	8f	[4b-
.	8E-	8g	.
.	2cT	2e-	4b-]
.	.	.	[4a-
=42	=42	=42	=42
8r	4.B-	4.d	8a-]
8BB-	.	.	16b-
.	.	.	16a-
8BB-	.	.	8g
8BB-	8B-	8d	8f
8C	4E-	4.e-	4e-
8C	.	.	.
8BB-	[4A-	.	4r
8AA-	.	16d	.
.	.	16c	.
=43	=43	=43	=43
8BB-	4A-]	8d	2r
8EE-	.	8B-	.
[4E-	4G	8B-	.
.	.	16c	.
.	.	16B-	.
4E-]	4F	4.A-	8r
.	.	.	8f
4D	4r	.	8f
.	.	16B-	8f
.	.	16A-	.
=44	=44	=44	=44
2E-	2r	8G	8g
.	.	8A-	8g
.	.	8B-	8f
.	.	8c	8e-
4BB-	4d	4.f	8r
.	.	.	8dd
4BBn	4G	.	8dd
.	.	8f	8dd
=45	=45	=45	=45
4C	4G	4e-	8ee-
.	.	.	8ee-
4r	[4c	4e- 4g	8dd
.	.	.	8cc
8r	4c]	2d	8dd
8G	.	.	8g
8G	4Bn	.	[4gg
8G	.	.	.
=46	=46	=46	=46
8A-	4.c	4r	8gg]
8A-	.	.	8cc
8G	.	8r	[4ff
8F	8r	8dd	.
8G	2r	8bn	4ff]
8C	.	8g	.
8c	.	8g	4ee-
8An	.	[8cc	.
=47	=47	=47	=47
8F#	2r	8cc]	4.dd
8D	.	16b-	.
.	.	16a	.
8G	.	4b-	.
8B-	.	.	[8dd
2C	8r	4.e-	8dd]
.	8B-	.	8dd
.	8A-	.	[4cc
.	8G	8e-	.
=48	=48	=48	=48
2D	4F#	4d	8cc]
.	.	.	8dd
.	4G	[4g	8b-
.	.	.	8a
4r	8r	8g]	4a
.	8d	16f#	.
.	.	16en	.
4D	8d	4f#	4f#
.	8d	.	.
=49	=49	=49	=49
4GG	8e-	4g	2r
.	8e-	.	.
4AA	8d	[4cc	.
.	8c	.	.
4.BB-	8d	4cc]	4r
.	8G	.	.
.	4g	4b-	4gg
16AA	.	.	.
16GG	.	.	.
=50	=50	=50	=50
8FF	4a	[4dd	4dd
8F	.	.	.
8G	8b-	8dd]	4een
8A	8a	8cc#	.
8D	8a	4dd	4ff
8cn	8en	.	.
8B-	[4f	4a	8ee
8A	.	.	8dd
=51	=51	=51	=51
4G	8f]	4dd	2bb-
.	8f	.	.
4r	8en	[4gg	.
.	8d	.	.
8r	4a 4cc#	4gg]	4.aa
8AA	.	.	.
8AA	4r	8ff	.
8AA	.	8een	8aa
=52	=52	=52	=52
8BB-	1r	8r	4dd
8BB-	.	8g	.
8AA	.	8dd	[4gg
8GG	.	8een	.
8AA	.	4cc#	4gg]
8DD	.	.	.
[4D	.	4a	8ff
.	.	.	16gg
.	.	.	16ff
=53	=53	=53	=53
4D]	8r	4.g	4.een
.	8A	.	.
4C#	8A	.	.
.	8A	8g	8ee
4D	8B-	4f	4dd
.	8B-	.	.
4En	8A	4g	8ccn
.	8G	.	8b-
=54	=54	=54	=54
4.F	8A	4f	4.a
.	8D	.	.
.	[4d	2.r	.
8G	.	.	8b-
4A	4d]	.	8en
.	.	.	16f#
.	.	.	16g
4AA	[4c	.	8a
.	.	.	8g
=55	=55	=55	=55
4D	4c]	1r	8f#
.	.	.	8d
8E-	4B-	.	[4g
8D	.	.	.
4C	[2A	.	8g]
.	.	.	16a
.	.	.	16g
8D	.	.	8f#
8C	.	.	16g
.	.	.	16a
=56	=56	=56	=56
2BB-	8A]	2d	4r
.	8A	.	.
.	8G	.	4dd
.	8F	.	.
2C	8E-	2r	4g
.	8e-	.	.
.	8d	.	4a
.	8c	.	.
=57	=57	=57	=57
4GG	8d	2r	4b-
.	8G	.	.
4r	8A	.	8a
.	8B-	.	8g
2c	8c	8r	2ee-
.	8b-	8dd	.
.	8a	[4cc	.
.	8g	.	.
=58	=58	=58	=58
8r	4.f#	4cc]	4dd
8DD	.	.	.
8DD	.	8b-	4r
8DD	8f#	8a	.
8EE-	4g	4g	8r
8EE-	.	.	8gg
8DD	4r	[4cc	8aa
8CC	.	.	8bb-
=59	=59	=59	=59
8DD	1r	4cc]	8ff#
8GGG	.	.	8dd
[4GG	.	4b-	8dd
.	.	.	16ee-
.	.	.	16dd
8GG]	.	[2a	4.cc
16AA	.	.	.
16GG	.	.	.
8FF#	.	.	.
8DD	.	.	16dd
.	.	.	16cc
=60	=60	=60	=60
8GG	4r	4a]	4.b-
8AA	.	.	.
8BB-	[4g	8r	.
8C	.	8b-	8r
8D	4g]	4.a	2r
8E-	.	.	.
8F	[4f	.	.
8D	.	8dd	.
=61	=61	=61	=61
8E-	4f]	4.g	1r
8F	.	.	.
8G	[4e-	.	.
8A	.	8cc	.
8B-	4e-]	4f	.
8A	.	.	.
8B-	4d	[4b-	.
8G	.	.	.
=62	=62	=62	=62
8c	2e-	4b-]	2r
8C	.	.	.
[4c	.	8a	.
.	.	8g	.
4c]	2d	4f#	8r
.	.	.	8dd
4Bn	.	4g	8dd
.	.	.	8dd
=63	=63	=63	=63
1r	2c	8r	8ee-
.	.	8ee-	8aa
.	.	8dd	8aa
.	.	8cc	8aa
.	2G	4dd	8bb-
.	.	.	8bb-
.	.	[4g	8aa
.	.	.	8gg
=64	=64	=64	=64
4r	2d	8g]	4aa
.	.	8f#	.
4D	.	8g	4dd
.	.	8a	.
4GG	2r	8r	4b-
.	.	8g	.
4AA	.	8f#	4c
.	.	16g	.
.	.	16a	.
=65	=65	=65	=65
4BB-	8r	[2d	4r
.	8G	.	.
8AA	8F#	.	4dd
8GG	8G	.	.
2E-T	2r	8d]	4g
.	.	8e-	.
.	.	8.cT	4a
.	.	32B-	.
.	.	32c	.
=66	=66	=66	=66
2D	2r	8d	4b-
.	.	8F#	.
.	.	4G	8a
.	.	.	8g
2C	8r	2r	2ee-T
.	8A	.	.
.	8A	.	.
.	8A	.	.
=67	=67	=67	=67
4G	8B-	8r	4.dd
.	8B-	8d	.
4BB-	8A	8d	.
.	8G	8d	8dd
2C	4c	8e-	4g
.	.	8e-	.
.	4A	8d	4cc
.	.	8c	.
=68	=68	=68	=68
!! Adagio
2D 2F#	2A	2d 2f# 2a	2cc
2GG 2BB- 2D	2G	2B- 2d 2g	2b-
=69	=69	=69	=69
1DD 1D	1A	[2d	2g 2a
.	.	4.d]	2f#
.	.	8c	.
=70	=70	=70	=70
1GG	1B-	1d	1g
====	====	====	====
*-	*-	*-	*-
